X:1512
T:Cameronian Reel, The
R:reel
N:"collected from F. O'Neill"
B:"O'Neill's Dance Music of Ireland, 1512"
T: siesd camerona.c.
Z:transcribed by John B. Walsh, walsh@math.ubc.ca 8/23/96
M:C|
L:1/8
K:D
dB "Segno"|BA2 FA DAFA|GFEF GBdB|TBAFA DAFA|GBAG FDdB|
BA2 FA DAFA|GFEF GBdB|TBAFA DAFA GBAG FD D2 Hx||
Addc d2 cd|edef gfed|3cBA eA fAeA|fdef gfed|
fgaf bage|dfec defg|3agf ge fdec|dABG FAdB "Segno"||
